bundles/org.openhab.ui.habpanel/web/assets/icons/smarthome-set/air-conditioning-outdoor.svg

<?xml version="1.0" encoding="UTF-8" standalone="no"?>
<svg width="32px" height="32px" viewBox="0 0 32 32" version="1.1" xmlns="http://www.w3.org/2000/svg" xmlns:xlink="http://www.w3.org/1999/xlink" xmlns:sketch="http://www.bohemiancoding.com/sketch/ns">
    <!-- Generator: Sketch 3.3.2 (12043) - http://www.bohemiancoding.com/sketch -->
    <title>air conditioning outdoor</title>
    <desc>Created with Sketch.</desc>
    <defs></defs>
    <g id="flatten" stroke="none" stroke-width="1" fill="none" fill-rule="evenodd" sketch:type="MSPage">
        <g id="z-copy" sketch:type="MSArtboardGroup" transform="translate(-100.000000, -164.000000)" fill="#000000">
            <g id="air-conditioning-outdoor" sketch:type="MSLayerGroup" transform="translate(100.000000, 164.000000)">
                <path d="M31,19.0853529 L31,12.9146471 L31,12.9146471 C31.5825962,12.7087289 32,12.1531094 32,11.5 C32,10.8468906 31.5825962,10.2912711 31,10.0853529 L31,6.991155 C31,5.33763014 29.6601023,4 28.0067126,4 L2.99328744,4 C1.34571366,4 0,5.34088776 0,6.991155 L0,25.008845 C0,26.6623699 1.33989774,28 2.99328744,28 L28.0067126,28 C29.6542863,28 31,26.6591122 31,25.008845 L31,21.9146471 C31.5825962,21.7087289 32,21.1531094 32,20.5 C32,19.8468906 31.5825962,19.2912711 31,19.0853529 L31,19.0853529 L31,19.0853529 Z M8.12399283,23 C7.20936764,22.4924752 6.40466903,21.8108978 5.75462905,21 L4,21 L4,20 L5.07025756,20 C4.71217795,19.3809871 4.4346584,18.7095418 4.25203497,18 L4,18 L4,17 L4.06189375,17 L4.06189375,17 C4.02104333,16.6724058 4,16.3386603 4,16 C4,15.6613397 4.02104333,15.3275942 4.06189375,15 L4,15 L4,14 L4.25203497,14 C4.4346584,13.2904582 4.71217795,12.6190129 5.07025756,12 L5.07025756,12 L4,12 L4,11 L5.75462905,11 C6.40466903,10.1891022 7.20936764,9.50752482 8.12399283,9 L4,9 L4,8 L20,8 L20,9 L15.8760072,9 L15.8760072,9 C16.7906324,9.50752482 17.595331,10.1891022 18.245371,11 L20,11 L20,12 L18.9297424,12 C19.287822,12.6190129 19.5653416,13.2904582 19.747965,14 L19.747965,14 L20,14 L20,15 L19.9381062,15 C19.9789567,15.3275942 20,15.6613397 20,16 C20,16.3386603 19.9789567,16.6724058 19.9381062,17 L20,17 L20,18 L19.747965,18 C19.5653416,18.7095418 19.287822,19.3809871 18.9297424,20 L18.9297424,20 L20,20 L20,21 L18.245371,21 C17.595331,21.8108978 16.7906324,22.4924752 15.8760072,23 L20,23 L20,24 L4,24 L4,23 L8.12399283,23 L8.12399283,23 L8.12399283,23 Z M17.7453107,20 C18.1666194,19.3959928 18.4951142,18.7224349 18.7101213,18 L18.7101213,18 L5.28987868,18 C5.50488581,18.7224349 5.83338064,19.3959928 6.25468928,20 L5.07025756,20 L17.7453107,20 L17.7453107,20 Z M16.8989827,21 C15.6364456,22.237187 13.9073051,23 12,23 C10.0926949,23 8.36355437,22.237187 7.10101727,21 L5.75462905,21 L16.8989827,21 L16.8989827,21 Z M18.9291111,17 C18.975828,16.673397 19,16.3395213 19,16 C19,15.6604787 18.975828,15.326603 18.9291111,15 L18.9291111,15 L5.07088886,15 C5.02417196,15.326603 5,15.6604787 5,16 C5,16.3395213 5.02417196,16.673397 5.07088886,17 L18.9291111,17 L18.9291111,17 L18.9291111,17 Z M18.7101213,14 C18.4951142,13.2775651 18.1666194,12.6040072 17.7453107,12 L17.7453107,12 L6.25468928,12 C5.83338064,12.6040072 5.50488581,13.2775651 5.28987868,14 L18.7101213,14 L18.7101213,14 L18.7101213,14 Z M16.8989827,11 C15.6364456,9.76281298 13.9073051,9 12,9 C10.0926949,9 8.36355437,9.76281298 7.10101727,11 L16.8989827,11 L16.8989827,11 Z M2,6.991155 C2,6.4470689 2.44867791,6 2.99328744,6 L28.0067126,6 C28.5562904,6 29,6.44295869 29,6.991155 L29,25.008845 C29,25.5529311 28.5513221,26 28.0067126,26 L2.99328744,26 C2.44370961,26 2,25.5570413 2,25.008845 L2,6.991155 L2,6.991155 Z M21,9.99188419 C21,8.89179693 21.8982606,8 22.9979131,8 L25.0020869,8 C26.1055038,8 27,8.89339733 27,9.99188419 L27,21.0081158 C27,22.1082031 26.1017394,23 25.0020869,23 L22.9979131,23 C21.8944962,23 21,22.1066027 21,21.0081158 L21,9.99188419 L21,9.99188419 Z M22,9.99188419 L22,21.0081158 C22,21.5543176 22.4467834,22 22.9979131,22 L25.0020869,22 C25.5517201,22 26,21.5536538 26,21.0081158 L26,9.99188419 C26,9.44568243 25.5532166,9 25.0020869,9 L22.9979131,9 C22.4482799,9 22,9.44634621 22,9.99188419 L22,9.99188419 Z" sketch:type="MSShapeGroup"></path>
            </g>
        </g>
    </g>
</svg>

<svg width="32" height="32" xmlns="http://www.w3.org/2000/svg"><path d="M31 19.085v-6.17a1.5 1.5 0 0 0 0-2.83V6.991A2.991 2.991 0 0 0 28.007 4H2.993A2.997 2.997 0 0 0 0 6.991V25.01A2.991 2.991 0 0 0 2.993 28h25.014A2.997 2.997 0 0 0 31 25.009v-3.094a1.5 1.5 0 0 0 0-2.83ZM8.124 23a8.037 8.037 0 0 1-2.37-2H4v-1h1.07a7.95 7.95 0 0 1-.818-2H4v-1h.062a8.079 8.079 0 0 1 0-2H4v-1h.252a7.95 7.95 0 0 1 .818-2H4v-1h1.755a8.037 8.037 0 0 1 2.369-2H4V8h16v1h-4.124a8.037 8.037 0 0 1 2.37 2H20v1h-1.07a7.95 7.95 0 0 1 .818 2H20v1h-.062a8.079 8.079 0 0 1 0 2H20v1h-.252a7.95 7.95 0 0 1-.818 2H20v1h-1.755a8.037 8.037 0 0 1-2.369 2H20v1H4v-1h4.124Zm9.621-3c.422-.604.75-1.278.965-2H5.29c.215.722.543 1.396.965 2H5.07h12.675Zm-.846 1A6.977 6.977 0 0 1 12 23a6.977 6.977 0 0 1-4.899-2H5.755h11.144Zm2.03-4a7.06 7.06 0 0 0 0-2H5.071a7.06 7.06 0 0 0 0 2h13.858Zm-.219-3a6.972 6.972 0 0 0-.965-2H6.255a6.972 6.972 0 0 0-.965 2h13.42ZM16.9 11A6.977 6.977 0 0 0 12 9a6.977 6.977 0 0 0-4.899 2h9.798ZM2 6.991C2 6.447 2.449 6 2.993 6h25.014c.55 0 .993.443.993.991V25.01a.997.997 0 0 1-.993.991H2.993A.991.991 0 0 1 2 25.009V6.99Zm19 3C21 8.892 21.898 8 22.998 8h2.004C26.106 8 27 8.893 27 9.992v11.016c0 1.1-.898 1.992-1.998 1.992h-2.004A1.996 1.996 0 0 1 21 21.008V9.992Zm1 0v11.017c0 .546.447.992.998.992h2.004c.55 0 .998-.446.998-.992V9.992A.996.996 0 0 0 25.002 9h-2.004a.997.997 0 0 0-.998.992Z" fill="#000" fill-rule="evenodd"/></svg>
